X:180
T:Londonderry Hornpipe
R:hp 48
S:Variations by O'Neill
M:4/4
L:1/8
Q:1/4=180
K:D
|:AG|F2Ad fdAF|G2Bd gdBG|
F2Ad fdAF|E2GB (3edcAG|
F2Ad fdAF|G2Bd g2ag|
fafd Bgec|d2f2 d2:|
|:fg|a2fd Adfa|g2ec Aceg|
a2fd Adgf|(3efd(3cdB A2fg|
a2fd Adfa|gece g2ag|
fafd Bgec|d2f2 d2:|
|:AG|(3FEDAD BDAD|dcdf ecAG|
(3FEDAD BDAD|EGFA GBAG|
(3FEDAD BDAD|dcdf edeg|
(3fafdf gece|df(3edc d2:|

